X:1
T:Title
%%score { ( 1 4 ) | ( 2 3 ) }
L:1/8
Q:1/4=95
M:6/8
K:C
V:1 treble nm="Grand Piano"
V:4 treble 
V:2 bass 
V:3 bass 
V:1
 [Ec][EB][EA] [EG]2 [EG] | [EA][EG][_E^F] [=EG] [CE]2 | [Ec][EB][A,EA] .[CEG]2 [Ec] | %3
w: Chas.~H.~Gabriel * * * *|||
 [FB][FB][F_B] [F=B]3 | dcB A2 A | BA^G A D2 | [B,D][CE][DF] [G,CE][EG][EA] | z3 d3 | %8
w: |||||
 [Ec][Ec][Ec] [Ec]2 [EA] | [FB][FB][F_B] [F=B] G2 | ddd d2 B | [Fd][Ec][DB] [Ec]3 | z3 .[Dd]3 | %13
w: |||||
 [DGB][DGB][DGB] [Ee]-[EAe]e | dcA G2 c | BAB [Ec]3 |] %16
w: |||
V:2
 [C,G,][C,G,][C,A,] [C,C]2 [C,C] | [C,C][C,C][C,C] [C,C] [C,G,]2 | [C,G,][C,G,]C, z A[C,G,] | %3
 [D,G,][D,G,][^C,F,] [D,G,]3 | [G,B,F][G,CF][G,DF] [G,B,F]2 [G,B,F] | %5
 [G,DF][G,CF][G,B,F] [G,B,F][K:bass] [G,B,]2 | [G,,G,][G,,G,][G,,G,] z C[C,G,] | %7
 [D,G,][D,A,][K:treble][CD^F] [B,DG][K:bass][A,C][G,B,] | [C,G,][C,G,][C,G,] [C,G,]2 [C,C] | %9
 [D,G,][D,G,][D,G,] [D,G,][K:treble] [G,B,F]2 | [G,B,F][G,B,F][G,B,F] [G,B,F]2 [G,F] | %11
 [C,G,][C,G,][C,G,] G,2 C | F,F,F, D,E,^F, | G,G,G, E,^F,[^G,B,E] | %14
 [A,CE][A,CE][^F,C_E][K:treble] [G,C=E]2 [G,CE] | [G,DF][G,DF][G,F][K:bass] [C,G,]3 |] %16
V:3
 x6 | x6 | z3 .C,3 | x6 | x6 | x4[K:bass] x2 | z3 .C,3 | x2[K:treble] x2[K:bass] x2 | x6 | %9
 x4[K:treble] x2 | x6 | z3 C,3 | x6 | x6 | x3[K:treble] x3 | x3[K:bass] x3 |] %16
V:4
 x6 | x6 | x6 | x6 | x6 | x6 | x6 | [DB][Ec]A z ^F=F | x6 | x6 | x6 | x6 | %12
 [CFA][CFA][CFA] ^FG[DAd] | z3 .^G3 | x6 | x6 |] %16

